X:1
T: Hawthorn Hedges
C:
R:Strathspey
Q: 128
K:A
M:4/4
L:1/16
|:c4 B3A EA3 A4|c3c B3A cde2 fga2|c4 B3A EA3 A4|FB3 B3c dcBA GB3|
c4 B3A EA3 A4|c3c B3A cde2 fga2|c4 B3A EA3 A4|FB3 B3c dcBA GB3|
ce3 e3f fedc e4|ce3 e2fg a3g f3e|ce3 e3f fedc e4|d3B c3A GB3 Bd3|
ce3 e3f fedc e4|ce3 e2fg a3g f3e|a3g f3e d3c B3A|FB3 B3c dcBA GB3:|
